X: 9
T:Postman's Knock, Adderbury
M:6/8
L:1/8
Q:100
A:Adderbury
P:B(AB)2B2
K:D
P:A
D|DFG A2F|GAB A2A|dAG  FED |E3- E2D |
DEF AAA|GAB A2F|Edc  BA^G|A3- AA>A|
AGF Fdd|dDE F2F|FFF  dcB |c3  B2A |
ddd dAF|EFG B2A|AdF  F<FE|D3  D2  ||
P:B
z|A2A AAA|Bcd A3 |d>cB A2F |F2E F3  |
A2A AAA|Bcd A3 |d>cB A2d |d3  c3  |d3 d2||
W:
W:Every morning as true as the clock
W:Someone hears the postman's knock,
W:Every morning as true as the clock
W:Someone hears the postman's knock,
